X:1
T:Weevily Wheat
M:6/8
L:1/8
K:G
 EF| G2 E EEE| DB,B, B,2 G| G2 E EDE| G3- A3| B3- B2 A| G2 A B2 A|\
 G2 A B2 G| A2 D D2 D| E3 E||
